X: 51
M: C
L: 1/8
K: D
   f | afdf ede<e | (B/c/B) ed B2Af | afef edee | (e/f/g) fe {Bc}d3 :|
|: A | d2fd ed BB | d<B ed {Bc}B2AA | d2fd edee | (e/f/g) fe d3 :|
at da cr\"u an dey wir rooin sheep twa folk fell oot aboot wha
owned a yowe.  Whin Freddie cam hame he composed dis t\"un an du
can hear da folk flytin as du plays him.  Da colour o' da yowe


